svgs/sharp-solid/trash-can-arrow-up.svg

<svg xmlns="http://www.w3.org/2000/svg" viewBox="0 0 448 512"><!--! Font Awesome Pro 6.6.0 by @fontawesome - https://fontawesome.com License - https://fontawesome.com/license (Commercial License) Copyright 2024 Fonticons, Inc. --><path d="M304 0l16 32 128 0 0 64L0 96 0 32l128 0L144 0 304 0zM32 128l384 0 0 384L32 512l0-384zm209 71l-17-17-17 17-80 80-17 17L144 329.9l17-17 39-39L200 408l0 24 48 0 0-24 0-134.1 39 39 17 17L337.9 296l-17-17-80-80z"/></svg>

<svg xmlns="http://www.w3.org/2000/svg" viewBox="0 0 448 512"><!--! Font Awesome Pro 6.4.2 by @fontawesome - https://fontawesome.com License - https://fontawesome.com/license (Commercial License) Copyright 2023 Fonticons, Inc. --><path d="M304 0l16 32H448V96H0V32H128L144 0H304zM32 128H416V512H32V128zm209 71l-17-17-17 17-80 80-17 17L144 329.9l17-17 39-39V408v24h48V408 273.9l39 39 17 17L337.9 296l-17-17-80-80z"/></svg>
